X:14394
T:Rodney's Glory
R:set dance
H:Similar to "Princess Royal", #11
Z:id:hn-setdance-7
M:C|
K:Ador
ed|c2Bc AB (3cBA|BGEF G2cd|e=fed cde^f|gfge d=fed|
c2Bc AB (3cBA|BGEF G2ed|(3cdc BA GA (3BAG|A2AG A2:|
|:cd|eaab aged|e=fed c2A2|g2 (3e^fg agec|dcAF G2E2|
AGAB cBcd|edeg a2ab|aged cdef|gfge d=fed|
c2Bc AB (3cBA|BGEF G2ed|(3cdc BA GA (3BAG|A2AG A2:|
